Newaita-dark/apps/64/kphotoalbum.svg

<svg height="64pt" viewBox="0 0 64 64" width="64pt" xmlns="http://www.w3.org/2000/svg" xmlns:xlink="http://www.w3.org/1999/xlink"><linearGradient id="a"><stop offset="0" stop-opacity=".313726"/><stop offset=".222222" stop-opacity=".27451"/><stop offset="1" stop-opacity="0"/></linearGradient><radialGradient id="b" cx="450.908936" cy="189.579361" gradientTransform="matrix(.00000035 -.156265 -.281277 -.0000002 87.061739 127.190659)" gradientUnits="userSpaceOnUse" r="21.166656" xlink:href="#a"/><radialGradient id="c" cx="450.908936" cy="189.579361" gradientTransform="matrix(-.00000035 .156265 .281277 .0000002 -23.555673 -15.054964)" gradientUnits="userSpaceOnUse" r="21.166656" xlink:href="#a"/><radialGradient id="d" cx="450.908936" cy="189.579361" gradientTransform="matrix(-.00000035 -.156265 .281277 -.0000002 -23.555673 127.190659)" gradientUnits="userSpaceOnUse" r="21.166656" xlink:href="#a"/><radialGradient id="e" cx="450.908936" cy="189.579361" gradientTransform="matrix(.00000035 .156265 -.281277 .0000002 87.061735 -15.054965)" gradientUnits="userSpaceOnUse" r="21.166656" xlink:href="#a"/><linearGradient id="f" gradientTransform="matrix(.0267201 0 0 .125012 24.930772 26.877567)" gradientUnits="userSpaceOnUse" x1="255.323059" x2="255.323044" y1="233.5" y2="254.666656"><stop offset="0" stop-opacity=".27451"/><stop offset="1" stop-opacity="0"/></linearGradient><linearGradient id="g" gradientUnits="userSpaceOnUse" x1="31.753048" x2="31.753048" y1="5.79220799994" y2="56.067868"><stop offset="0" stop-color="#7986cb"/><stop offset="1" stop-color="#5c6bc0"/></linearGradient><linearGradient id="h"><stop offset="0" stop-color="#616161"/><stop offset="1" stop-color="#424242"/></linearGradient><linearGradient id="i" gradientTransform="matrix(.354201 0 0 -.354201 -58.213906 42.412041)" gradientUnits="userSpaceOnUse" x1="254" x2="254" xlink:href="#h" y1="-31.083334" y2="95.916664"/><linearGradient id="j"><stop offset="0" stop-color="#757575"/><stop offset="1" stop-color="#616161"/></linearGradient><linearGradient id="k" gradientUnits="userSpaceOnUse" x1="960.000112" x2="960.000112" xlink:href="#j" y1="295.11811498163" y2="1575.118224"/><linearGradient id="l" gradientUnits="userSpaceOnUse" x1="960.000127" x2="960.000127" xlink:href="#j" y1="295.11805398163" y2="1575.11821969292"/><linearGradient id="m" gradientUnits="userSpaceOnUse" x1="960.000124" x2="960.000124" xlink:href="#j" y1="295.11805398163" y2="1575.118163"/><linearGradient id="n" gradientUnits="userSpaceOnUse" x1="960.000123" x2="960.000123" xlink:href="#j" y1="295.11805398163" y2="1575.118163"/><linearGradient id="o" gradientUnits="userSpaceOnUse" x1="960.000121" x2="960.000121" xlink:href="#j" y1="295.11805398163" y2="1575.118163"/><linearGradient id="p" gradientUnits="userSpaceOnUse" x1="960.000126" x2="960.000126" xlink:href="#j" y1="295.11805398163" y2="1575.11821969292"/><linearGradient id="q" gradientUnits="userSpaceOnUse" x1="254" x2="254" xlink:href="#h" y1="-73.416664" y2="138.25"/><path d="m34.398438 56.066406h5.292968v-2.644531h-5.292968zm0 0" fill="url(#b)"/><path d="m29.105469 56.066406h-5.289063v2.648438h5.289063zm0 0" fill="url(#c)"/><path d="m29.105469 56.066406h-5.289063v-2.644531h5.289063zm0 0" fill="url(#d)"/><path d="m34.398438 56.066406h5.292968v2.648438h-5.292968zm0 0" fill="url(#e)"/><path d="m29.105469 55.40625h5.292969v3.308594h-5.292969zm0 0" fill="url(#f)"/><path d="m31.753906 5.792969c13.882813 0 25.136719 11.253906 25.136719 25.136719 0 13.882812-11.253906 25.136718-25.136719 25.136718-13.882812 0-25.140625-11.253906-25.140625-25.136718 0-13.882813 11.257813-25.136719 25.140625-25.136719zm0 0" fill="url(#g)"/><path d="m31.753906 49.453125c11.691406 0 21.167969-8.292969 21.167969-18.523437v-1.324219c0-10.226563-9.476563-18.519531-21.167969-18.519531s-21.167968 8.292968-21.167968 18.519531v1.324219c0 10.230468 9.476562 18.523437 21.167968 18.523437zm0 0" fill="url(#i)"/><path d="m31.753906 55.902344c-13.925781 0-25.140625-11.210938-25.140625-25.136719 0-.082031.003907-.164063.003907-.246094.128906 13.8125 11.292968 24.890625 25.136718 24.890625s25.003906-11.078125 25.136719-24.890625v.246094c0 13.925781-11.210937 25.136719-25.136719 25.136719zm0 0" fill-opacity=".196078"/><path d="m31.753906 5.957031c-13.925781 0-25.140625 11.210938-25.140625 25.136719 0 .082031.003907.164062.003907.246094.128906-13.808594 11.292968-24.890625 25.136718-24.890625s25.003906 11.082031 25.136719 24.890625c0-.082032 0-.164063 0-.246094 0-13.925781-11.210937-25.136719-25.136719-25.136719zm0 0" fill="#fff" fill-opacity=".392157"/><g stroke="#212121" stroke-linecap="round"><path d="m429.407835 576.204848c-69.087894 102.155604-109.359641 225.687121-109.359641 358.902753 0 354.533092 285.445197 639.978289 639.978289 639.978289 15.234766 0 30.351434-.472396 45.231903-1.535286zm0 0" fill="url(#k)" stroke-width="11.338583" transform="scale(.0330761)"/><path d="m960.026483 295.129312c-354.533092 0-639.978289 285.445198-639.978289 639.978289 0 133.215632 40.271747 256.747149 109.359641 358.902753l575.850551-997.345755c-14.880469-1.062891-29.997137-1.535287-45.231903-1.535287zm0 0" fill="url(#l)" stroke-width="11.338583" transform="scale(.0330761)"/><path d="m960.026483 295.129312c-254.030873 0-472.632056 146.560815-576.086749 359.965644h1152.173498c-103.572792-213.404829-322.055877-359.965644-576.086749-359.965644zm0 0" fill="url(#m)" stroke-width="11.338583" transform="scale(.0330761)"/><path d="m960.026483 295.129312c-15.234767 0-30.351434.472396-45.350003 1.535287l575.850551 997.345755c69.205994-102.155604 109.477741-225.687121 109.477741-358.902753 0-354.533091-285.445198-639.978289-639.978289-639.978289zm0 0" fill="url(#n)" stroke-width="11.338583" transform="scale(.0330761)"/><path d="m1490.527031 576.204848-530.500548 918.928043 45.231903 78.417713c333.275278-23.147398 594.746386-299.144678 594.746386-638.443003 0-133.215632-40.271747-256.747149-109.477741-358.902753zm0 0" fill="url(#o)" stroke-width="11.338583" transform="scale(.0330761)"/><path d="m798.349 1215.120246 206.909386 358.430358c234.544544-16.297658 433.541299-157.780217 530.854846-358.430358zm0 0" fill="url(#p)" stroke-width="11.338583" transform="scale(.0330761)"/><path d="m254.006994-31.080063c35.059152 0 63.493936 28.434784 63.493936 63.493936s-28.434784 63.493937-63.493936 63.493937c-35.090399 0-63.493937-28.434785-63.493937-63.493937 0-35.059152 28.403538-63.493936 63.493937-63.493936zm0 0" fill="url(#q)" stroke-linejoin="round" stroke-width="3" transform="matrix(.125012 0 0 .125012 0 26.877566)"/></g><path d="m31.753906 5.605469c-14.027344 0-25.328125 11.296875-25.328125 25.324219 0 14.027343 11.300781 25.324218 25.328125 25.324218s25.324219-11.296875 25.324219-25.324218c0-14.027344-11.296875-25.324219-25.324219-25.324219zm0 .375c13.824219 0 24.949219 11.125 24.949219 24.949219 0 13.824218-11.125 24.949218-24.949219 24.949218-13.828125 0-24.953125-11.125-24.953125-24.949218 0-13.824219 11.125-24.949219 24.953125-24.949219zm0 0" fill="#212121"/><path d="m27.242188 26.21875c1.550781-1.550781 3.4375-2.179688 4.210937-1.402344.773437.773438.148437 2.660156-1.402344 4.210938-1.550781 1.546875-3.4375 2.175781-4.210937 1.402344-.773438-.777344-.148438-2.660157 1.402344-4.210938zm0 0" fill="#fff" fill-opacity=".196078"/><path d="m31.753906 9.761719c-11.726562 0-21.167968 9.441406-21.167968 21.167969 0 .160156 0 .316406.003906.476562.25-11.507812 9.59375-20.695312 21.164062-20.695312 11.566406 0 20.910156 9.1875 21.164063 20.695312 0-.160156.003906-.316406.003906-.476562 0-11.726563-9.441406-21.167969-21.167969-21.167969zm0 0" fill="#353535" fill-opacity=".235294"/><path d="m31.753906 53.089844c-11.726562 0-21.167968-9.441406-21.167968-21.167969 0-.15625 0-.316406.003906-.472656.25 11.503906 9.59375 20.691406 21.164062 20.691406 11.566406 0 20.910156-9.1875 21.164063-20.691406 0 .15625.003906.316406.003906.472656 0 11.726563-9.441406 21.167969-21.167969 21.167969zm0 0" fill="#fff" fill-opacity=".392157"/><path d="m254.006994-136.913707c93.522319 0 169.32758 75.805261 169.32758 169.32758s-75.805261 169.32758-169.32758 169.32758c-93.52232 0-169.32758-75.805261-169.32758-169.32758s75.80526-169.32758 169.32758-169.32758zm0 0" fill="none" stroke="#212121" stroke-linecap="round" stroke-width="3" transform="matrix(.125012 0 0 .125012 0 26.877566)"/></svg>

<?xml version="1.0" encoding="UTF-8"?>
<svg xmlns="http://www.w3.org/2000/svg" xmlns:xlink="http://www.w3.org/1999/xlink" width="64pt" height="64pt" viewBox="0 0 64 64" version="1.1">
<defs>
<radialGradient id="radial0" gradientUnits="userSpaceOnUse" cx="450.908936" cy="189.579361" fx="450.908936" fy="189.579361" r="21.166656" gradientTransform="matrix(0.000000348341,-0.156265,-0.281277,-0.000000203077,87.061739,127.190659)">
<stop offset="0" style="stop-color:rgb(0%,0%,0%);stop-opacity:0.313726;"/>
<stop offset="0.222222" style="stop-color:rgb(0%,0%,0%);stop-opacity:0.27451;"/>
<stop offset="1" style="stop-color:rgb(0%,0%,0%);stop-opacity:0;"/>
</radialGradient>
<radialGradient id="radial1" gradientUnits="userSpaceOnUse" cx="450.908936" cy="189.579361" fx="450.908936" fy="189.579361" r="21.166656" gradientTransform="matrix(-0.000000348341,0.156265,0.281277,0.000000203077,-23.555673,-15.054964)">
<stop offset="0" style="stop-color:rgb(0%,0%,0%);stop-opacity:0.313726;"/>
<stop offset="0.222222" style="stop-color:rgb(0%,0%,0%);stop-opacity:0.27451;"/>
<stop offset="1" style="stop-color:rgb(0%,0%,0%);stop-opacity:0;"/>
</radialGradient>
<radialGradient id="radial2" gradientUnits="userSpaceOnUse" cx="450.908936" cy="189.579361" fx="450.908936" fy="189.579361" r="21.166656" gradientTransform="matrix(-0.000000348341,-0.156265,0.281277,-0.000000203077,-23.555673,127.190659)">
<stop offset="0" style="stop-color:rgb(0%,0%,0%);stop-opacity:0.313726;"/>
<stop offset="0.222222" style="stop-color:rgb(0%,0%,0%);stop-opacity:0.27451;"/>
<stop offset="1" style="stop-color:rgb(0%,0%,0%);stop-opacity:0;"/>
</radialGradient>
<radialGradient id="radial3" gradientUnits="userSpaceOnUse" cx="450.908936" cy="189.579361" fx="450.908936" fy="189.579361" r="21.166656" gradientTransform="matrix(0.000000348341,0.156265,-0.281277,0.000000203077,87.061735,-15.054965)">
<stop offset="0" style="stop-color:rgb(0%,0%,0%);stop-opacity:0.313726;"/>
<stop offset="0.222222" style="stop-color:rgb(0%,0%,0%);stop-opacity:0.27451;"/>
<stop offset="1" style="stop-color:rgb(0%,0%,0%);stop-opacity:0;"/>
</radialGradient>
<linearGradient id="linear0" gradientUnits="userSpaceOnUse" x1="255.323059" y1="233.5" x2="255.323044" y2="254.666656" gradientTransform="matrix(0.0267201,0,0,0.125012,24.930772,26.877567)">
<stop offset="0" style="stop-color:rgb(0%,0%,0%);stop-opacity:0.27451;"/>
<stop offset="1" style="stop-color:rgb(0%,0%,0%);stop-opacity:0;"/>
</linearGradient>
<linearGradient id="linear1" gradientUnits="userSpaceOnUse" x1="254" y1="-168.666672" x2="254" y2="233.5" gradientTransform="matrix(0.125012,0,0,0.125012,0,26.877566)">
<stop offset="0" style="stop-color:rgb(47.450981%,52.549022%,79.607844%);stop-opacity:1;"/>
<stop offset="1" style="stop-color:rgb(36.078432%,41.960785%,75.294119%);stop-opacity:1;"/>
</linearGradient>
<linearGradient id="linear2" gradientUnits="userSpaceOnUse" x1="254" y1="-31.083334" x2="254" y2="95.916664" gradientTransform="matrix(0.354201,0,0,-0.354201,-58.213906,42.412041)">
<stop offset="0" style="stop-color:rgb(38.039216%,38.039216%,38.039216%);stop-opacity:1;"/>
<stop offset="1" style="stop-color:rgb(25.882354%,25.882354%,25.882354%);stop-opacity:1;"/>
</linearGradient>
<linearGradient id="linear3" gradientUnits="userSpaceOnUse" x1="254" y1="-136.916656" x2="254" y2="201.75" gradientTransform="matrix(3.779528,0,0,3.779528,-0.000000262818,812.59845)">
<stop offset="0" style="stop-color:rgb(45.882353%,45.882353%,45.882353%);stop-opacity:1;"/>
<stop offset="1" style="stop-color:rgb(38.039216%,38.039216%,38.039216%);stop-opacity:1;"/>
</linearGradient>
<linearGradient id="linear4" gradientUnits="userSpaceOnUse" x1="254" y1="-136.916656" x2="254" y2="201.750015" gradientTransform="matrix(3.779528,0,0,3.779528,0.0000150706,812.598389)">
<stop offset="0" style="stop-color:rgb(45.882353%,45.882353%,45.882353%);stop-opacity:1;"/>
<stop offset="1" style="stop-color:rgb(38.039216%,38.039216%,38.039216%);stop-opacity:1;"/>
</linearGradient>
<linearGradient id="linear5" gradientUnits="userSpaceOnUse" x1="254" y1="-136.916656" x2="254" y2="201.75" gradientTransform="matrix(3.779528,0,0,3.779528,0.0000122325,812.598389)">
<stop offset="0" style="stop-color:rgb(45.882353%,45.882353%,45.882353%);stop-opacity:1;"/>
<stop offset="1" style="stop-color:rgb(38.039216%,38.039216%,38.039216%);stop-opacity:1;"/>
</linearGradient>
<linearGradient id="linear6" gradientUnits="userSpaceOnUse" x1="254" y1="-136.916656" x2="254" y2="201.75" gradientTransform="matrix(3.779528,0,0,3.779528,0.0000114517,812.598389)">
<stop offset="0" style="stop-color:rgb(45.882353%,45.882353%,45.882353%);stop-opacity:1;"/>
<stop offset="1" style="stop-color:rgb(38.039216%,38.039216%,38.039216%);stop-opacity:1;"/>
</linearGradient>
<linearGradient id="linear7" gradientUnits="userSpaceOnUse" x1="254" y1="-136.916656" x2="254" y2="201.75" gradientTransform="matrix(3.779528,0,0,3.779528,0.00000924297,812.598389)">
<stop offset="0" style="stop-color:rgb(45.882353%,45.882353%,45.882353%);stop-opacity:1;"/>
<stop offset="1" style="stop-color:rgb(38.039216%,38.039216%,38.039216%);stop-opacity:1;"/>
</linearGradient>
<linearGradient id="linear8" gradientUnits="userSpaceOnUse" x1="254" y1="-136.916656" x2="254" y2="201.750015" gradientTransform="matrix(3.779528,0,0,3.779528,0.0000140149,812.598389)">
<stop offset="0" style="stop-color:rgb(45.882353%,45.882353%,45.882353%);stop-opacity:1;"/>
<stop offset="1" style="stop-color:rgb(38.039216%,38.039216%,38.039216%);stop-opacity:1;"/>
</linearGradient>
<linearGradient id="linear9" gradientUnits="userSpaceOnUse" x1="254" y1="-73.416664" x2="254" y2="138.25" >
<stop offset="0" style="stop-color:rgb(38.039216%,38.039216%,38.039216%);stop-opacity:1;"/>
<stop offset="1" style="stop-color:rgb(25.882354%,25.882354%,25.882354%);stop-opacity:1;"/>
</linearGradient>
</defs>
<g id="surface1">
<path style=" stroke:none;fill-rule:nonzero;fill:url(#radial0);" d="M 34.398438 56.066406 L 39.691406 56.066406 L 39.691406 53.421875 L 34.398438 53.421875 Z M 34.398438 56.066406 "/>
<path style=" stroke:none;fill-rule:nonzero;fill:url(#radial1);" d="M 29.105469 56.066406 L 23.816406 56.066406 L 23.816406 58.714844 L 29.105469 58.714844 Z M 29.105469 56.066406 "/>
<path style=" stroke:none;fill-rule:nonzero;fill:url(#radial2);" d="M 29.105469 56.066406 L 23.816406 56.066406 L 23.816406 53.421875 L 29.105469 53.421875 Z M 29.105469 56.066406 "/>
<path style=" stroke:none;fill-rule:nonzero;fill:url(#radial3);" d="M 34.398438 56.066406 L 39.691406 56.066406 L 39.691406 58.714844 L 34.398438 58.714844 Z M 34.398438 56.066406 "/>
<path style=" stroke:none;fill-rule:nonzero;fill:url(#linear0);" d="M 29.105469 55.40625 L 34.398438 55.40625 L 34.398438 58.714844 L 29.105469 58.714844 Z M 29.105469 55.40625 "/>
<path style=" stroke:none;fill-rule:nonzero;fill:url(#linear1);" d="M 31.753906 5.792969 C 45.636719 5.792969 56.890625 17.046875 56.890625 30.929688 C 56.890625 44.8125 45.636719 56.066406 31.753906 56.066406 C 17.871094 56.066406 6.613281 44.8125 6.613281 30.929688 C 6.613281 17.046875 17.871094 5.792969 31.753906 5.792969 Z M 31.753906 5.792969 "/>
<path style=" stroke:none;fill-rule:nonzero;fill:url(#linear2);" d="M 31.753906 49.453125 C 43.445312 49.453125 52.921875 41.160156 52.921875 30.929688 L 52.921875 29.605469 C 52.921875 19.378906 43.445312 11.085938 31.753906 11.085938 C 20.0625 11.085938 10.585938 19.378906 10.585938 29.605469 L 10.585938 30.929688 C 10.585938 41.160156 20.0625 49.453125 31.753906 49.453125 Z M 31.753906 49.453125 "/>
<path style=" stroke:none;fill-rule:nonzero;fill:rgb(0%,0%,0%);fill-opacity:0.196078;" d="M 31.753906 55.902344 C 17.828125 55.902344 6.613281 44.691406 6.613281 30.765625 C 6.613281 30.683594 6.617188 30.601562 6.617188 30.519531 C 6.746094 44.332031 17.910156 55.410156 31.753906 55.410156 C 45.597656 55.410156 56.757812 44.332031 56.890625 30.519531 C 56.890625 30.601562 56.890625 30.683594 56.890625 30.765625 C 56.890625 44.691406 45.679688 55.902344 31.753906 55.902344 Z M 31.753906 55.902344 "/>
<path style=" stroke:none;fill-rule:nonzero;fill:rgb(100%,100%,100%);fill-opacity:0.392157;" d="M 31.753906 5.957031 C 17.828125 5.957031 6.613281 17.167969 6.613281 31.09375 C 6.613281 31.175781 6.617188 31.257812 6.617188 31.339844 C 6.746094 17.53125 17.910156 6.449219 31.753906 6.449219 C 45.597656 6.449219 56.757812 17.53125 56.890625 31.339844 C 56.890625 31.257812 56.890625 31.175781 56.890625 31.09375 C 56.890625 17.167969 45.679688 5.957031 31.753906 5.957031 Z M 31.753906 5.957031 "/>
<path style="fill-rule:nonzero;fill:url(#linear3);stroke-width:11.338583;stroke-linecap:round;stroke-linejoin:miter;stroke:rgb(12.941177%,12.941177%,12.941177%);stroke-opacity:1;stroke-miterlimit:4;" d="M 429.407835 576.204848 C 360.319941 678.360452 320.048194 801.891969 320.048194 935.107601 C 320.048194 1289.640693 605.493391 1575.08589 960.026483 1575.08589 C 975.261249 1575.08589 990.377917 1574.613494 1005.258386 1573.550604 Z M 429.407835 576.204848 " transform="matrix(0.0330761,0,0,0.0330761,0,0)"/>
<path style="fill-rule:nonzero;fill:url(#linear4);stroke-width:11.338583;stroke-linecap:round;stroke-linejoin:miter;stroke:rgb(12.941177%,12.941177%,12.941177%);stroke-opacity:1;stroke-miterlimit:4;" d="M 960.026483 295.129312 C 605.493391 295.129312 320.048194 580.57451 320.048194 935.107601 C 320.048194 1068.323233 360.319941 1191.85475 429.407835 1294.010354 L 1005.258386 296.664599 C 990.377917 295.601708 975.261249 295.129312 960.026483 295.129312 Z M 960.026483 295.129312 " transform="matrix(0.0330761,0,0,0.0330761,0,0)"/>
<path style="fill-rule:nonzero;fill:url(#linear5);stroke-width:11.338583;stroke-linecap:round;stroke-linejoin:miter;stroke:rgb(12.941177%,12.941177%,12.941177%);stroke-opacity:1;stroke-miterlimit:4;" d="M 960.026483 295.129312 C 705.99561 295.129312 487.394427 441.690127 383.939734 655.094956 L 1536.113232 655.094956 C 1432.54044 441.690127 1214.057355 295.129312 960.026483 295.129312 Z M 960.026483 295.129312 " transform="matrix(0.0330761,0,0,0.0330761,0,0)"/>
<path style="fill-rule:nonzero;fill:url(#linear6);stroke-width:11.338583;stroke-linecap:round;stroke-linejoin:miter;stroke:rgb(12.941177%,12.941177%,12.941177%);stroke-opacity:1;stroke-miterlimit:4;" d="M 960.026483 295.129312 C 944.791716 295.129312 929.675049 295.601708 914.67648 296.664599 L 1490.527031 1294.010354 C 1559.733025 1191.85475 1600.004772 1068.323233 1600.004772 935.107601 C 1600.004772 580.57451 1314.559574 295.129312 960.026483 295.129312 Z M 960.026483 295.129312 " transform="matrix(0.0330761,0,0,0.0330761,0,0)"/>
<path style="fill-rule:nonzero;fill:url(#linear7);stroke-width:11.338583;stroke-linecap:round;stroke-linejoin:miter;stroke:rgb(12.941177%,12.941177%,12.941177%);stroke-opacity:1;stroke-miterlimit:4;" d="M 1490.527031 576.204848 L 960.026483 1495.132891 L 1005.258386 1573.550604 C 1338.533664 1550.403206 1600.004772 1274.405926 1600.004772 935.107601 C 1600.004772 801.891969 1559.733025 678.360452 1490.527031 576.204848 Z M 1490.527031 576.204848 " transform="matrix(0.0330761,0,0,0.0330761,0,0)"/>
<path style="fill-rule:nonzero;fill:url(#linear8);stroke-width:11.338583;stroke-linecap:round;stroke-linejoin:miter;stroke:rgb(12.941177%,12.941177%,12.941177%);stroke-opacity:1;stroke-miterlimit:4;" d="M 798.349 1215.120246 L 1005.258386 1573.550604 C 1239.80293 1557.252946 1438.799685 1415.770387 1536.113232 1215.120246 Z M 798.349 1215.120246 " transform="matrix(0.0330761,0,0,0.0330761,0,0)"/>
<path style="fill-rule:nonzero;fill:url(#linear9);stroke-width:3;stroke-linecap:round;stroke-linejoin:round;stroke:rgb(12.941177%,12.941177%,12.941177%);stroke-opacity:1;stroke-miterlimit:4;" d="M 254.006994 -31.080063 C 289.066146 -31.080063 317.50093 -2.645279 317.50093 32.413873 C 317.50093 67.473025 289.066146 95.90781 254.006994 95.90781 C 218.916595 95.90781 190.513057 67.473025 190.513057 32.413873 C 190.513057 -2.645279 218.916595 -31.080063 254.006994 -31.080063 Z M 254.006994 -31.080063 " transform="matrix(0.125012,0,0,0.125012,0,26.877566)"/>
<path style=" stroke:none;fill-rule:nonzero;fill:rgb(12.941177%,12.941177%,12.941177%);fill-opacity:1;" d="M 31.753906 5.605469 C 17.726562 5.605469 6.425781 16.902344 6.425781 30.929688 C 6.425781 44.957031 17.726562 56.253906 31.753906 56.253906 C 45.78125 56.253906 57.078125 44.957031 57.078125 30.929688 C 57.078125 16.902344 45.78125 5.605469 31.753906 5.605469 Z M 31.753906 5.980469 C 45.578125 5.980469 56.703125 17.105469 56.703125 30.929688 C 56.703125 44.753906 45.578125 55.878906 31.753906 55.878906 C 17.925781 55.878906 6.800781 44.753906 6.800781 30.929688 C 6.800781 17.105469 17.925781 5.980469 31.753906 5.980469 Z M 31.753906 5.980469 "/>
<path style=" stroke:none;fill-rule:nonzero;fill:rgb(100%,100%,100%);fill-opacity:0.196078;" d="M 27.242188 26.21875 C 28.792969 24.667969 30.679688 24.039062 31.453125 24.816406 C 32.226562 25.589844 31.601562 27.476562 30.050781 29.027344 C 28.5 30.574219 26.613281 31.203125 25.839844 30.429688 C 25.066406 29.652344 25.691406 27.769531 27.242188 26.21875 Z M 27.242188 26.21875 "/>
<path style=" stroke:none;fill-rule:nonzero;fill:rgb(20.784314%,20.784314%,20.784314%);fill-opacity:0.235294;" d="M 31.753906 9.761719 C 20.027344 9.761719 10.585938 19.203125 10.585938 30.929688 C 10.585938 31.089844 10.585938 31.246094 10.589844 31.40625 C 10.839844 19.898438 20.183594 10.710938 31.753906 10.710938 C 43.320312 10.710938 52.664062 19.898438 52.917969 31.40625 C 52.917969 31.246094 52.921875 31.089844 52.921875 30.929688 C 52.921875 19.203125 43.480469 9.761719 31.753906 9.761719 Z M 31.753906 9.761719 "/>
<path style=" stroke:none;fill-rule:nonzero;fill:rgb(100%,100%,100%);fill-opacity:0.392157;" d="M 31.753906 53.089844 C 20.027344 53.089844 10.585938 43.648438 10.585938 31.921875 C 10.585938 31.765625 10.585938 31.605469 10.589844 31.449219 C 10.839844 42.953125 20.183594 52.140625 31.753906 52.140625 C 43.320312 52.140625 52.664062 42.953125 52.917969 31.449219 C 52.917969 31.605469 52.921875 31.765625 52.921875 31.921875 C 52.921875 43.648438 43.480469 53.089844 31.753906 53.089844 Z M 31.753906 53.089844 "/>
<path style="fill:none;stroke-width:3;stroke-linecap:round;stroke-linejoin:miter;stroke:rgb(12.941177%,12.941177%,12.941177%);stroke-opacity:1;stroke-miterlimit:4;" d="M 254.006994 -136.913707 C 347.529313 -136.913707 423.334574 -61.108446 423.334574 32.413873 C 423.334574 125.936192 347.529313 201.741453 254.006994 201.741453 C 160.484674 201.741453 84.679414 125.936192 84.679414 32.413873 C 84.679414 -61.108446 160.484674 -136.913707 254.006994 -136.913707 Z M 254.006994 -136.913707 " transform="matrix(0.125012,0,0,0.125012,0,26.877566)"/>
</g>
</svg>
